X:4
T:Polska efter Anton Andersson (SvL Bohuslän 4)
R:Polska
O:Skee, Bohuslän
S:Anton Andersson
B:Svenska Låtar Bohuslän
Z:Till abc Jonas Brunskog
M:3/4
L:1/8
K:D
a2 (3f(ga) (3f(ga)|a(g e>)(f g)a|(3b(gb) a=f de|(3=ffg f>e f>g|
a2 (3^f(ga) (3f(ga)|a(g e>)f ga|(3b(gb) a=f (3def|(3ece d4:|
|:e>g fe df|fe cd (3efe|df fe ce|d>f e(c A)c|
e>g fe df|fe cd ef|gb af df|(3ece [dD]4:|

